widgets/Swipe/setting/css/images/r2l_selected.svg

<svg width="24" height="24" xmlns="http://www.w3.org/2000/svg"><path d="M1 1v22h22V1H1zM0 0h24v24H0V0zm9 16l-4-4 4-4 .7.7-2.8 2.8H18v1H6.9l2.8 2.8-.7.7zm3-15h1v7h-1V1zm0 15h1v7h-1v-7zM22 2v10.5h-2.46V10H14V2h8zm0 13.892v6.283h-8V14h4.5v1.892H22z" fill="#24B5CC"/></svg>

<?xml version="1.0" encoding="UTF-8"?>
<svg width="24px" height="24px" viewBox="0 0 24 24" version="1.1" xmlns="http://www.w3.org/2000/svg" xmlns:xlink="http://www.w3.org/1999/xlink">
    <!-- Generator: Sketch 52.3 (67297) - http://www.bohemiancoding.com/sketch -->
    <title>RtoL_selected</title>
    <desc>Created with Sketch.</desc>
    <g id="swipe" stroke="none" stroke-width="1" fill="none" fill-rule="evenodd">
        <g id="icons" transform="translate(-178.000000, -150.000000)" fill="#24B5CC" fill-rule="nonzero">
            <g id="RtoL_selected" transform="translate(178.000000, 150.000000)">
                <path d="M1,1 L1,23 L23,23 L23,1 L1,1 Z M0,0 L24,0 L24,24 L0,24 L0,0 Z M9,16 L5,12 L9,8 L9.7,8.7 L6.9,11.5 L18,11.5 L18,12.5 L6.9,12.5 L9.7,15.3 L9,16 Z M12,1 L13,1 L13,8 L12,8 L12,1 Z M12,16 L13,16 L13,23 L12,23 L12,16 Z M22,2 L22,12.5 L19.5407715,12.5 L19.5407715,10 L14,10 L14,2 L22,2 Z M22,15.8916016 L22,22.1748047 L14,22.1748047 L14,14 L18.5,14 L18.5,15.8916016 L22,15.8916016 Z" id="Shape"></path>
            </g>
        </g>
    </g>
</svg>
